src/16/panel/autokey-status-error.svg

<svg xmlns="http://www.w3.org/2000/svg" width="16" height="16" version="1.1">
 <defs>
  <style id="current-color-scheme" type="text/css">
   .ColorScheme-Text { color:#dfdfdf; } .ColorScheme-Highlight { color:#FF5252; }
  </style>
 </defs>
 <path style="fill:currentColor" class="ColorScheme-Highlight" d="M 3.625 1 A 1.7500384 1.6924769 0 0 0 1.8847656 2.5058594 L 1.0097656 10.121094 A 1.7500384 1.6924769 0 0 0 2.75 12 L 13.25 12 A 1.7500384 1.6924769 0 0 0 14.990234 10.121094 L 14.115234 2.5058594 A 1.7500384 1.6924769 0 0 0 12.375 1 L 3.625 1 z M 7.9882812 3 C 8.1554472 2.99412 8.306581 3.089536 8.3574219 3.2324219 L 9.0058594 5.0058594 L 11.125 5.0058594 C 11.487013 5.0049272 11.637856 5.4572528 11.34375 5.6464844 L 9.6230469 6.7578125 L 10.277344 8.5664062 C 10.384684 8.8722997 9.9954551 9.1247516 9.7050781 8.9375 L 7.9941406 7.8144531 L 6.2773438 8.9316406 C 5.9843826 9.1241687 5.5910213 8.8652334 5.7070312 8.5566406 L 6.3691406 6.7519531 L 4.6542969 5.6347656 C 4.3629523 5.444595 4.5126594 4.993774 4.8730469 4.9941406 L 6.9960938 5.0039062 L 7.6503906 3.2304688 C 7.6983012 3.097693 7.8327586 3.0057972 7.9882812 3 z M 1 12.300781 L 1 12.779297 C 1 13.839797 1.9084203 15 2.96875 15 L 13.03125 15 C 14.091667 15 15 13.839797 15 12.779297 L 15 12.300781 C 14.534537 12.725155 13.928072 12.998047 13.25 12.998047 L 2.75 12.998047 C 2.0722779 12.998047 1.4651137 12.725155 1 12.300781 z"/>
</svg>

<svg xmlns="http://www.w3.org/2000/svg" width="16" height="16"><defs><style id="current-color-scheme" type="text/css"></style></defs><path d="M3.625 1a1.75 1.692 0 0 0-1.74 1.506L1.01 10.12A1.75 1.692 0 0 0 2.75 12h10.5a1.75 1.692 0 0 0 1.74-1.879l-.875-7.615A1.75 1.692 0 0 0 12.375 1h-8.75zm4.363 2a.373.373 0 0 1 .37.232l.648 1.774h2.119c.362-.001.513.451.219.64L9.623 6.758l.654 1.808c.108.306-.282.559-.572.371l-1.71-1.123-1.718 1.118c-.293.192-.686-.067-.57-.375l.662-1.805-1.715-1.117c-.291-.19-.141-.641.219-.64l2.123.009.654-1.774A.368.368 0 0 1 7.988 3zM1 12.3v.48C1 13.84 1.908 15 2.969 15H13.03C14.091 15 15 13.84 15 12.78v-.48a2.59 2.59 0 0 1-1.75.698H2.75A2.59 2.59 0 0 1 1 12.301z" fill="currentColor" color="#5294e2"/></svg>
